img/content/openbayesLogo.svg

<svg width="263" height="45" viewBox="0 0 263 45" fill="none" xmlns="http://www.w3.org/2000/svg">
<g clip-path="url(#clip0_833_1341)">
<path fill-rule="evenodd" clip-rule="evenodd" d="M250.182 0.5L225.036 9.08485V33.1224L234.097 30.0292V15.1975L250.182 9.70594V0.5Z" fill="#F56311"/>
<path fill-rule="evenodd" clip-rule="evenodd" d="M237.855 17.4529L263.001 8.86804V32.9056L237.855 41.4905V17.4529Z" fill="#59C3F0"/>
<path fill-rule="evenodd" clip-rule="evenodd" d="M12.081 34.2458C5.88184 34.2458 0.381836 29.7712 0.381836 22.9195C0.381836 16.0212 5.88184 11.5466 12.081 11.5466C18.2801 11.5466 23.7801 16.0212 23.7801 22.9195C23.7801 29.7712 18.2801 34.2458 12.081 34.2458ZM12.081 28.5593C15.1107 28.5593 17.581 26.2754 17.581 22.9195C17.581 19.517 15.1107 17.2331 12.081 17.2331C9.05133 17.2331 6.58099 19.517 6.58099 22.9195C6.58099 26.2754 9.05133 28.5593 12.081 28.5593ZM39.3855 11.5466C44.9787 11.5466 50.0593 15.928 50.0593 22.9195C50.0593 29.911 44.9787 34.2458 39.3855 34.2458C36.9152 34.2458 33.9321 33.3136 32.394 31.1229V44.5H26.2881V12.1059H32.394V14.7161C33.9321 12.5254 36.9152 11.5466 39.3855 11.5466ZM38.2203 28.5127C41.2965 28.5127 43.8135 26.1356 43.8135 22.9195C43.8135 19.75 41.2965 17.2797 38.2203 17.2797C35.2372 17.2797 32.5804 19.6102 32.5804 22.9195C32.5804 26.2754 35.3771 28.5127 38.2203 28.5127ZM74.1477 22.5932C74.1477 23.1992 74.1011 23.9449 74.0545 24.9237H57.6477C58.3002 27.4407 60.3511 28.839 63.2875 28.839C65.4782 28.839 67.6689 27.9534 68.974 26.4153L72.5629 30.0042C70.5121 32.7542 66.6901 34.2458 62.868 34.2458C56.2028 34.2458 51.3087 29.678 51.3087 22.9661C51.3087 15.928 56.6223 11.5466 62.868 11.5466C69.0672 11.5466 74.1477 15.928 74.1477 22.5932ZM57.6477 20.9619H68.0418C67.8553 18.3983 65.7113 16.8602 62.9613 16.8602C60.4909 16.8602 58.3002 18.0254 57.6477 20.9619ZM89.1937 11.5466C87.0497 11.5466 83.6005 12.8051 82.6683 15.7415V12.1059H76.5624V33.8263H82.6683V22.6864C82.6683 18.7246 85.3717 17.5593 87.5624 17.5593C89.6599 17.5593 91.7107 19.0975 91.7107 22.5466V33.8263H97.8166V21.8941C97.8632 15.3686 94.8802 11.5466 89.1937 11.5466ZM114.118 11.5932C119.711 11.5932 124.792 15.928 124.792 22.9195C124.792 29.911 119.711 34.2458 114.118 34.2458C111.648 34.2458 108.665 33.3136 107.127 31.1229V33.8263H101.021V0.5H107.127V14.7161C108.665 12.5254 111.648 11.5932 114.118 11.5932ZM112.953 28.5593C116.029 28.5593 118.546 26.089 118.546 22.9195C118.546 19.7034 116.029 17.3263 112.953 17.3263C110.11 17.3263 107.313 19.5636 107.313 22.9195C107.313 26.2288 109.97 28.5593 112.953 28.5593ZM143.66 12.1059H149.766V33.8263H143.66V31.1229C142.122 33.2669 139.092 34.2458 136.668 34.2458C131.075 34.2458 125.995 29.911 125.995 22.9195C125.995 15.928 131.075 11.5932 136.668 11.5932C139.185 11.5932 142.122 12.5254 143.66 14.7161V12.1059ZM137.834 28.5593C140.817 28.5593 143.474 26.2288 143.474 22.9195C143.474 19.5636 140.677 17.3263 137.834 17.3263C134.757 17.3263 132.194 19.7034 132.194 22.9195C132.194 26.089 134.757 28.5593 137.834 28.5593ZM167.655 12.1059H174.227L160.804 44.5H154.278L159.405 31.7754L150.829 12.1059H157.541L162.668 24.6441L167.655 12.1059ZM196.172 22.5932C196.172 23.1992 196.125 23.9449 196.078 24.9237H179.672C180.324 27.4407 182.375 28.839 185.311 28.839C187.502 28.839 189.693 27.9534 190.998 26.4153L194.587 30.0042C192.536 32.7542 188.714 34.2458 184.892 34.2458C178.227 34.2458 173.333 29.678 173.333 22.9661C173.333 15.928 178.646 11.5466 184.892 11.5466C191.091 11.5466 196.172 15.928 196.172 22.5932ZM179.672 20.9619H190.066C189.879 18.3983 187.735 16.8602 184.985 16.8602C182.515 16.8602 180.324 18.0254 179.672 20.9619ZM206.277 34.2458C210.752 34.2458 215.413 32.0085 215.413 27.4407C215.413 25.6695 214.76 22.4068 209.54 21.0085L205.951 20.0763C204.739 19.75 203.807 19.2373 203.807 18.2119C203.807 17.0932 204.925 16.3941 206.324 16.3941C207.769 16.3941 208.98 17.1864 208.98 18.6314H214.807C214.853 13.5042 210.192 11.5466 206.23 11.5466C201.196 11.5466 197.701 14.6695 197.701 18.0254C197.701 20.3093 198.446 23.4322 204.04 24.9237L206.93 25.6229C208.561 26.0424 209.307 26.5085 209.307 27.4407C209.307 28.6992 207.955 29.4449 206.184 29.4449C204.04 29.4449 202.968 28.0932 202.968 26.8347H197.235C197.281 31.6356 201.709 34.2458 206.277 34.2458Z" fill="#2E2F35"/>
</g>
<defs>
<clipPath id="clip0_833_1341">
<rect width="262.619" height="44" fill="white" transform="translate(0.381836 0.5)"/>
</clipPath>
</defs>
</svg>

<svg width="263" height="45" fill="none" xmlns="http://www.w3.org/2000/svg"><g clip-path="url(#a)" fill-rule="evenodd" clip-rule="evenodd"><path d="m250.182.5-25.146 8.585v24.037l9.061-3.093V15.197l16.085-5.491V.5Z" fill="#F56311"/><path d="m237.855 17.453 25.146-8.585v24.038l-25.146 8.584V17.453Z" fill="#59C3F0"/><path d="M12.081 34.246c-6.2 0-11.7-4.475-11.7-11.327 0-6.898 5.5-11.372 11.7-11.372 6.2 0 11.7 4.474 11.7 11.372 0 6.852-5.5 11.327-11.7 11.327Zm0-5.687c3.03 0 5.5-2.284 5.5-5.64 0-3.402-2.47-5.686-5.5-5.686s-5.5 2.284-5.5 5.686c0 3.356 2.47 5.64 5.5 5.64Zm27.305-17.012c5.593 0 10.673 4.381 10.673 11.372 0 6.992-5.08 11.327-10.673 11.327-2.47 0-5.454-.932-6.992-3.123V44.5h-6.106V12.106h6.106v2.61c1.538-2.19 4.521-3.17 6.992-3.17ZM38.22 28.513c3.077 0 5.593-2.377 5.593-5.594 0-3.169-2.517-5.64-5.593-5.64-2.983 0-5.64 2.331-5.64 5.64 0 3.356 2.797 5.594 5.64 5.594Zm35.928-5.92c0 .606-.047 1.352-.093 2.33H57.648c.652 2.518 2.703 3.916 5.64 3.916 2.19 0 4.38-.886 5.686-2.424l3.589 3.59c-2.05 2.75-5.873 4.24-9.695 4.24-6.665 0-11.56-4.567-11.56-11.279 0-7.038 5.314-11.42 11.56-11.42 6.2 0 11.28 4.382 11.28 11.047Zm-16.5-1.631h10.394c-.187-2.564-2.33-4.102-5.08-4.102-2.471 0-4.662 1.165-5.314 4.102Zm31.546-9.415c-2.144 0-5.594 1.258-6.526 4.194v-3.635h-6.106v21.72h6.106v-11.14c0-3.961 2.704-5.127 4.894-5.127 2.098 0 4.149 1.538 4.149 4.988v11.28h6.106V21.893c.046-6.525-2.937-10.347-8.623-10.347Zm24.924.046c5.593 0 10.674 4.335 10.674 11.326 0 6.992-5.081 11.327-10.674 11.327-2.47 0-5.453-.932-6.991-3.123v2.703h-6.106V.5h6.106v14.216c1.538-2.19 4.521-3.123 6.991-3.123Zm-1.165 16.966c3.076 0 5.593-2.47 5.593-5.64 0-3.216-2.517-5.593-5.593-5.593-2.843 0-5.64 2.238-5.64 5.593 0 3.31 2.657 5.64 5.64 5.64Zm30.707-16.453h6.106v21.72h-6.106v-2.703c-1.538 2.144-4.568 3.123-6.992 3.123-5.593 0-10.673-4.335-10.673-11.327 0-6.991 5.08-11.326 10.673-11.326 2.517 0 5.454.932 6.992 3.123v-2.61Zm-5.826 16.453c2.983 0 5.64-2.33 5.64-5.64 0-3.355-2.797-5.593-5.64-5.593-3.077 0-5.64 2.377-5.64 5.593 0 3.17 2.563 5.64 5.64 5.64Zm29.821-16.453h6.572L160.804 44.5h-6.526l5.127-12.725-8.576-19.67h6.712l5.127 12.54 4.987-12.54Zm28.517 10.487c0 .606-.047 1.352-.094 2.33h-16.406c.652 2.518 2.703 3.916 5.639 3.916 2.191 0 4.382-.886 5.687-2.424l3.589 3.59c-2.051 2.75-5.873 4.24-9.695 4.24-6.665 0-11.559-4.567-11.559-11.279 0-7.038 5.313-11.42 11.559-11.42 6.199 0 11.28 4.382 11.28 11.047Zm-16.5-1.631h10.394c-.187-2.564-2.331-4.102-5.081-4.102-2.47 0-4.661 1.165-5.313 4.102Zm26.605 13.284c4.475 0 9.136-2.238 9.136-6.805 0-1.771-.653-5.034-5.873-6.432l-3.589-.933c-1.212-.326-2.144-.839-2.144-1.864 0-1.119 1.118-1.818 2.517-1.818 1.445 0 2.656.792 2.656 2.237h5.827c.046-5.127-4.615-7.084-8.577-7.084-5.034 0-8.529 3.122-8.529 6.478 0 2.284.745 5.407 6.339 6.899l2.89.699c1.631.42 2.377.886 2.377 1.818 0 1.258-1.352 2.004-3.123 2.004-2.144 0-3.216-1.352-3.216-2.61h-5.733c.046 4.8 4.474 7.41 9.042 7.41Z" fill="#2E2F35"/></g><defs><clipPath id="a"><path fill="#fff" transform="translate(.382 .5)" d="M0 0h262.619v44H0z"/></clipPath></defs></svg>
